images_breeze_svg/cmd/sc_bezier_unfilled.svg

<svg viewBox="0 0 16 16" xmlns="http://www.w3.org/2000/svg">
/&amp;gt;<path d="m2 2v3h3v-.9570312h9v-1.0429688h-9v-1zm1 1h1v1h-1z" fill="#1d99f3"/><path d="m14 3c-2.465286 0-4.7351499.8149996-6.5664062 2.1855469-.1741358.1303265-.3438242.266038-.5097657.40625-.0375399.0315477-.0761719.0617137-.1132812.09375-.1169441.1015066-.2292527.2081615-.3417969.3144531-.0805677.0756732-.1619793.1504758-.2402344.2285156-.0780398.0782551-.1528424.1596667-.2285156.2402344-.1062916.1125442-.2129465.2248528-.3144531.3417969-.0320363.0371093-.0622023.0757413-.09375.1132812-.140212.1659415-.2759235.3356299-.40625.5097657-1.3705473 1.8312563-2.1855469 4.1011202-2.1855469 6.5664062h1c0-.345178.0166412-.685314.0507812-1.021484.5121-5.0425607 4.7715491-8.978516 9.9492188-8.978516z" fill="#4d4d4d"/></svg>

<?xml version="1.0" encoding="UTF-8" standalone="no"?>
<svg
   xmlns:dc="http://purl.org/dc/elements/1.1/"
   xmlns:cc="http://creativecommons.org/ns#"
   xmlns:rdf="http://www.w3.org/1999/02/22-rdf-syntax-ns#"
   xmlns:svg="http://www.w3.org/2000/svg"
   xmlns="http://www.w3.org/2000/svg"
   xmlns:sodipodi="http://sodipodi.sourceforge.net/DTD/sodipodi-0.dtd"
   xmlns:inkscape="http://www.inkscape.org/namespaces/inkscape"
   viewBox="0 0 16 16"
   version="1.1"
   id="svg4"
   sodipodi:docname="sc_bezier_unfilled.svg"
   inkscape:version="0.92.4 (unknown)"
   inkscape:export-filename="/home/rizmut/Dokumen/Rizmut/Github/libreoffice-style-breeze/images_breeze/cmd/sc_bezier_unfilled.png"
   inkscape:export-xdpi="96"
   inkscape:export-ydpi="96"><metadata
   id="metadata10">
  <rdf:RDF>
    <cc:Work
       rdf:about="">
      <dc:format>image/svg+xml</dc:format>
      <dc:type
         rdf:resource="http://purl.org/dc/dcmitype/StillImage" />
    </cc:Work>
  </rdf:RDF>
</metadata>
<defs
   id="defs8" />
<sodipodi:namedview
   pagecolor="#ffffff"
   bordercolor="#666666"
   borderopacity="1"
   objecttolerance="10"
   gridtolerance="10"
   guidetolerance="10"
   inkscape:pageopacity="0"
   inkscape:pageshadow="2"
   inkscape:window-width="1360"
   inkscape:window-height="714"
   id="namedview6"
   showgrid="true"
   inkscape:zoom="20.85965"
   inkscape:cx="10.008706"
   inkscape:cy="9.469247"
   inkscape:window-x="0"
   inkscape:window-y="28"
   inkscape:window-maximized="1"
   inkscape:current-layer="svg4">
  <inkscape:grid
     type="xygrid"
     id="grid817" />
</sodipodi:namedview>
/&gt;<path
   inkscape:connector-curvature="0"
   style="opacity:1;fill:#1d99f3;fill-opacity:1;stroke:none;stroke-width:1.62899995;stroke-linecap:round;stroke-linejoin:round;stroke-miterlimit:4;stroke-dasharray:none;stroke-opacity:1"
   d="M 2,2 V 5 H 5 V 4.0429688 h 9 V 3 H 5 V 2 Z M 3,3 H 4 V 4 H 3 Z"
   id="rect830"
   sodipodi:nodetypes="cccccccccccccc" />
<path
   style="fill:#4d4d4d"
   d="M 14 3 C 11.534714 3 9.2648501 3.8149996 7.4335938 5.1855469 C 7.259458 5.3158734 7.0897696 5.4515849 6.9238281 5.5917969 C 6.8862882 5.6233446 6.8476562 5.6535106 6.8105469 5.6855469 C 6.6936028 5.7870535 6.5812942 5.8937084 6.46875 6 C 6.3881823 6.0756732 6.3067707 6.1504758 6.2285156 6.2285156 C 6.1504758 6.3067707 6.0756732 6.3881823 6 6.46875 C 5.8937084 6.5812942 5.7870535 6.6936028 5.6855469 6.8105469 C 5.6535106 6.8476562 5.6233446 6.8862882 5.5917969 6.9238281 C 5.4515849 7.0897696 5.3158734 7.259458 5.1855469 7.4335938 C 3.8149996 9.2648501 3 11.534714 3 14 L 4 14 C 4 13.654822 4.0166412 13.314686 4.0507812 12.978516 C 4.5628812 7.9359553 8.8223303 4 14 4 L 14 3 z "
   id="path2" />
</svg>
